X:155
T: Der grausame Bruder
N: Q0068
O: Mitteleuropa, Deutschland (DDR) , Sachsen, Kr. Wolmirstedt, Samswegen
R: Ballade, Schwangerschaft, Moral, Mord
M: 6/8
L: 1/16
K: D
D2 | F3FF2F2A2D2 | F3EE2E4
F2 | F4F2A3GF2 | E2A2A2A4
F2 | G3GG2B2A2G2 | F4F2A4
F2 | E4E2G2F2E2 | E2D2D2D4
F2 | G3GG2B2A2G2 | F4F2A4
F2 | E4E2G2F2E2 | E2D2D2D4

@@@ Tune index: 1031
